flaticon/hand-gestures/pointing-up-5.svg

<svg xmlns="http://www.w3.org/2000/svg" width="32" height="32" viewBox="0 0 24 24">
    <path d="M 20.191406 9.328125 C 20.191406 9.320312 20.191406 9.3125 20.191406 9.308594 C 20.164062 8.890625 20.003906 8.515625 19.757812 8.226562 C 19.40625 7.78125 18.929688 7.558594 18.394531 7.558594 C 17.992188 7.558594 17.640625 7.65625 17.355469 7.824219 C 17.175781 7.007812 16.425781 6.398438 15.554688 6.398438 C 15.15625 6.398438 14.78125 6.539062 14.484375 6.773438 C 14.230469 6.085938 13.574219 5.601562 12.792969 5.601562 C 12.421875 5.601562 12.082031 5.710938 11.796875 5.898438 L 11.796875 2 C 11.796875 1.039062 11.234375 0 9.953125 0 C 8.714844 0 8.15625 1 8.15625 2 L 8.15625 10.480469 C 7.835938 9.761719 7.355469 9.039062 6.875 8.558594 C 6.234375 7.921875 4.953125 7.878906 4.234375 8.480469 C 4.035156 8.679688 3.355469 9.398438 4.273438 10.679688 C 5.113281 11.878906 5.796875 14.519531 5.796875 16.039062 C 5.796875 19.199219 7.875 20.640625 8.59375 21.039062 L 8.59375 22.441406 C 8.59375 23.28125 9.273438 24 10.15625 24 L 17.394531 24 C 18.234375 24 18.953125 23.28125 18.996094 22.398438 L 18.996094 20.960938 C 20.195312 19.359375 20.195312 19.160156 20.195312 16 L 20.195312 9.441406 C 20.195312 9.402344 20.195312 9.363281 20.191406 9.328125 Z M 17.394531 11.800781 L 17.394531 9.199219 C 17.394531 8.601562 17.953125 8.398438 18.394531 8.398438 C 18.414062 8.398438 18.429688 8.402344 18.449219 8.402344 C 18.941406 8.433594 19.347656 8.890625 19.394531 9.425781 C 19.394531 9.441406 19.394531 9.460938 19.394531 9.480469 L 19.394531 12 C 19.394531 12.601562 18.875 12.800781 18.394531 12.800781 C 17.953125 12.800781 17.394531 12.601562 17.394531 12 Z M 15.554688 7.199219 C 16.113281 7.199219 16.59375 7.640625 16.59375 8.199219 L 16.59375 11.71875 C 16.59375 11.75 16.550781 12.304688 16.1875 12.589844 C 16.144531 12.621094 16.097656 12.652344 16.046875 12.679688 C 15.945312 12.730469 15.820312 12.761719 15.675781 12.761719 C 15.417969 12.761719 15.210938 12.726562 15.050781 12.648438 C 14.78125 12.476562 14.59375 12.164062 14.59375 11.800781 L 14.59375 8.199219 C 14.59375 7.640625 15.035156 7.199219 15.554688 7.199219 Z M 12.792969 6.398438 C 13.316406 6.398438 13.792969 6.839844 13.792969 7.398438 L 13.792969 12.121094 C 13.792969 12.640625 13.433594 13.078125 12.996094 13.160156 C 12.675781 13.238281 12.394531 13.160156 12.15625 12.960938 C 12.125 12.941406 12.097656 12.917969 12.070312 12.894531 C 11.898438 12.71875 11.792969 12.472656 11.792969 12.199219 L 11.792969 7.398438 C 11.796875 6.839844 12.234375 6.398438 12.792969 6.398438 Z M 18.457031 20.398438 L 17.796875 20.398438 C 17.554688 20.398438 17.394531 20.558594 17.394531 20.800781 C 17.394531 21.039062 17.554688 21.199219 17.796875 21.199219 L 18.226562 21.199219 L 18.195312 22.398438 C 18.195312 22.839844 17.835938 23.199219 17.394531 23.199219 L 10.15625 23.199219 C 9.753906 23.199219 9.394531 22.878906 9.394531 22.441406 L 9.394531 21.199219 L 10.15625 21.199219 C 10.394531 21.199219 10.554688 21.039062 10.554688 20.800781 C 10.554688 20.558594 10.394531 20.398438 10.15625 20.398438 L 9.066406 20.398438 C 8.601562 20.171875 6.59375 18.980469 6.59375 16.039062 C 6.59375 14.558594 5.953125 11.640625 4.953125 10.199219 C 4.675781 9.839844 4.433594 9.359375 4.792969 9.078125 C 4.953125 8.921875 5.234375 8.839844 5.515625 8.839844 C 5.792969 8.839844 6.113281 8.921875 6.316406 9.121094 C 7.316406 10.078125 8.195312 12.199219 8.195312 13.199219 C 8.195312 13.207031 8.195312 13.214844 8.195312 13.21875 C 8.195312 13.226562 8.195312 13.234375 8.195312 13.238281 C 8.195312 14.320312 8.875 15.199219 9.753906 15.199219 C 9.996094 15.199219 10.15625 15.039062 10.15625 14.800781 C 10.15625 14.558594 9.996094 14.398438 9.753906 14.398438 C 9.355469 14.398438 8.996094 13.878906 8.996094 13.238281 C 8.996094 13.234375 8.996094 13.226562 8.992188 13.21875 C 8.996094 13.214844 8.996094 13.207031 8.996094 13.199219 L 8.996094 2 C 8.996094 1.71875 9.035156 0.800781 9.953125 0.800781 C 10.914062 0.800781 10.953125 1.800781 10.953125 2 L 10.953125 12.199219 C 10.953125 12.761719 11.195312 13.238281 11.636719 13.601562 C 12.042969 13.933594 12.550781 14.058594 13.039062 13.984375 C 13.574219 13.90625 14.046875 13.585938 14.328125 13.132812 C 14.515625 13.292969 14.722656 13.414062 14.953125 13.492188 C 15.140625 13.5625 15.34375 13.601562 15.554688 13.601562 C 15.570312 13.601562 15.589844 13.597656 15.605469 13.597656 C 15.628906 13.597656 15.652344 13.601562 15.675781 13.601562 C 16.273438 13.601562 16.679688 13.347656 16.945312 13.011719 C 17.257812 13.382812 17.765625 13.601562 18.394531 13.601562 C 18.777344 13.601562 19.117188 13.511719 19.394531 13.355469 L 19.394531 16 C 19.394531 18.9375 19.394531 19.074219 18.457031 20.398438 Z M 18.457031 20.398438"/>
</svg>

<svg xmlns="http://www.w3.org/2000/svg" width="32" height="32" viewBox="0 0 24 24">
    <path d="M20.191 9.328v-.02a1.85 1.85 0 0 0-.433-1.081 1.688 1.688 0 0 0-1.363-.668 2.03 2.03 0 0 0-1.04.265 1.845 1.845 0 0 0-1.8-1.426c-.399 0-.774.141-1.07.375a1.793 1.793 0 0 0-1.692-1.171 1.8 1.8 0 0 0-.996.296V2c0-.96-.563-2-1.844-2-1.238 0-1.797 1-1.797 2v8.48c-.32-.718-.8-1.44-1.281-1.921-.64-.637-1.922-.68-2.64-.079-.2.2-.88.918.038 2.2.84 1.199 1.524 3.84 1.524 5.36 0 3.16 2.078 4.6 2.797 5v1.401c0 .84.68 1.559 1.562 1.559h7.239c.84 0 1.558-.719 1.601-1.602v-1.437c1.2-1.602 1.2-1.8 1.2-4.961V9.441c0-.039 0-.078-.005-.113zm-2.796 2.473V9.199c0-.597.558-.8 1-.8.02 0 .035.003.054.003.492.032.899.489.946 1.024V12c0 .602-.52.8-1 .8-.442 0-1-.198-1-.8zm-1.84-4.602c.558 0 1.039.442 1.039 1v3.52c0 .031-.043.586-.407.87-.042.032-.09.063-.14.09a.826.826 0 0 1-.371.083c-.258 0-.465-.035-.625-.114a1.003 1.003 0 0 1-.457-.847V8.199c0-.558.441-1 .96-1zm-2.762-.8c.523 0 1 .44 1 1v4.722c0 .52-.36.957-.797 1.04a.914.914 0 0 1-.84-.2.719.719 0 0 1-.086-.066.99.99 0 0 1-.277-.696V7.4a.994.994 0 0 1 1-1zm5.664 14h-.66c-.242 0-.402.16-.402.402 0 .238.16.398.402.398h.43l-.032 1.2c0 .44-.36.8-.8.8h-7.239a.76.76 0 0 1-.761-.758V21.2h.761c.239 0 .399-.16.399-.398 0-.242-.16-.403-.399-.403h-1.09c-.464-.226-2.472-1.418-2.472-4.359 0-1.48-.64-4.398-1.64-5.84-.278-.36-.52-.84-.161-1.12.16-.157.441-.24.723-.24.277 0 .597.083.8.282 1 .957 1.88 3.078 1.88 4.078v.04c0 1.081.679 1.96 1.558 1.96.242 0 .402-.16.402-.398 0-.242-.16-.403-.402-.403-.399 0-.758-.52-.758-1.16 0-.004 0-.011-.004-.02.004-.003.004-.011.004-.019V2c0-.281.04-1.2.957-1.2.961 0 1 1 1 1.2v10.2c0 .562.242 1.038.684 1.402a1.78 1.78 0 0 0 1.402.382 1.842 1.842 0 0 0 1.29-.851c.187.16.394.281.624.36.188.07.39.109.602.109.015 0 .035-.004.05-.004.024 0 .047.004.07.004.598 0 1.005-.254 1.27-.59.313.37.82.59 1.45.59.382 0 .722-.09 1-.247V16c0 2.938 0 3.074-.938 4.398zm0 0"/>
</svg>
